X: 25
T:Father's #1
M:3/4
L:1/4
S:Angus Cameron
N:from The Scottish Music List, Vol2 No 93
Z:Bernard Chenery
K:D
D F A |A2 A|B3|A3|D F A|A2 A|B3|A B c|
d A d|c3|B G B|A3|D E F|E2 D|A3|A B c|
d3/2 d/2 d|c3/2 c/2 c|d G d|A3|G3/2 G/2 G|F2 F|E e d|c B A|
d A d|c3|B G B|A3|A B d|F2 E|D3|D3:|

